X: 17473
T: Hilda's Choice
R: reel
M: 4/4
K: Adorian
eA AG A2 Bd|^de e=d ef ge|dG GB dG Bd|de dB GA Bd|
eA AG A2 Bd|^de e=d ef ge|dG GB dG Bd|1 de dB A2 Bd:|2 de dB A3 g||
|:ae eg ga ab|ge ed ef ge|dG GB dG Bd|1 de dB dG Gg|
ae eg ga ab|ge ed ef ge|dG GB dG Bd|dG BG A3 g:|2 dc BA GA Bd||
eA AG A2 Bd|^de e=d ef ge|dG GB dG Bd|de dB A4:]

